svg/distance_apart.svg

<svg width="24" height="24" viewBox="0 0 24 24" xmlns="http://www.w3.org/2000/svg"><path d="M6 8c1.1 0 2-.9 2-2s-.9-2-2-2-2 .9-2 2 .9 2 2 2zm4 3.43c0-.81-.48-1.53-1.22-1.85a6.95 6.95 0 0 0-5.56 0A2.01 2.01 0 0 0 2 11.43V12h8v-.57zM18 8c1.1 0 2-.9 2-2s-.9-2-2-2-2 .9-2 2 .9 2 2 2zm4 3.43c0-.81-.48-1.53-1.22-1.85a6.95 6.95 0 0 0-5.56 0A2.01 2.01 0 0 0 14 11.43V12h8v-.57zM19 19v-2.01L5 17v2l-3-3 3-3v2.01L19 15v-2l3 3-3 3z"/></svg>

<svg width="24" height="24" viewBox="0 0 24 24" xmlns="http://www.w3.org/2000/svg">
<path d="M6 8C7.1 8 8 7.1 8 6C8 4.9 7.1 4 6 4C4.9 4 4 4.9 4 6C4 7.1 4.9 8 6 8ZM10 11.43C10 10.62 9.52 9.9 8.78 9.58C7.93 9.21 6.99 9 6 9C5.01 9 4.07 9.21 3.22 9.58C2.48 9.9 2 10.62 2 11.43V12H10V11.43ZM18 8C19.1 8 20 7.1 20 6C20 4.9 19.1 4 18 4C16.9 4 16 4.9 16 6C16 7.1 16.9 8 18 8ZM22 11.43C22 10.62 21.52 9.9 20.78 9.58C19.93 9.21 18.99 9 18 9C17.01 9 16.07 9.21 15.22 9.58C14.48 9.9 14 10.62 14 11.43V12H22V11.43ZM19 19V16.99L5 17V19L2 16L5 13V15.01L19 15V13L22 16L19 19Z" />
</svg>
